pk/mask.svg

<svg viewBox="0 0 48 48" fill="none" xmlns="http://www.w3.org/2000/svg" height="1em" width="1em">
  <path fill-rule="evenodd" clip-rule="evenodd" d="M14 14H34C39.5228 14 44 18.4772 44 24V27C44 34.1797 38.1797 40 31 40H24H17C9.8203 40 4 34.1797 4 27V24C4 18.4772 8.47715 14 14 14Z" fill="#2F88FF" stroke="black" stroke-width="4"/>
  <path d="M18 27H30" stroke="white" stroke-width="4" stroke-linecap="round"/>
  <path d="M24 21V33" stroke="white" stroke-width="4" stroke-linecap="round"/>
  <path d="M4 25.0421V12.0145C4.00003 9.7124 5.86624 7.84619 8.16833 7.84619C9.24067 7.84619 10.2718 8.25946 11.0472 9.00009C12.6463 10.5273 13.7875 12.194 14.4707 14.0002" stroke="black" stroke-width="4" stroke-linecap="round" stroke-linejoin="round"/>
  <path d="M44 25.0421V12.7656C44 10.2925 41.9952 8.2876 39.522 8.2876C38.1474 8.2876 36.8489 8.91898 36 10.0002C34.9552 11.3308 33.9552 12.6641 33 14.0002" stroke="black" stroke-width="4" stroke-linecap="round" stroke-linejoin="round"/>
</svg>

<svg viewBox="0 0 48 48" fill="none" xmlns="http://www.w3.org/2000/svg" height="1em" width="1em">
  <path fill-rule="evenodd" clip-rule="evenodd" d="M14 14h20c5.523 0 10 4.477 10 10v3c0 7.18-5.82 13-13 13H17C9.82 40 4 34.18 4 27v-3c0-5.523 4.477-10 10-10Z" fill="#2F88FF" stroke="#000" stroke-width="4"/>
  <path d="M18 27h12m-6-6v12" stroke="#fff" stroke-width="4" stroke-linecap="round"/>
  <path d="M4 25.042V12.014A4.168 4.168 0 0 1 11.047 9c1.6 1.527 2.74 3.194 3.424 5M44 25.042V12.766A4.478 4.478 0 0 0 36 10a111.149 111.149 0 0 0-3 4" stroke="#000" stroke-width="4" stroke-linecap="round" stroke-linejoin="round"/>
</svg>
